X: 7115
T: Christmas Eve
R: reel
M: 4/4
K: Gmajor
GE|:DB,DE G2 GA|B2 dB ABGA|BAGE DB,DE|G2 BG ABGE|
DB,DE G2GA|B2 dB ABGA|BA (3AAA GEBG|1 ABGE G2 GE:|2 ABGE ~G3A||
|:BABd edeg|abge g2eg|~a2 ae ~g2 ge|dedB BAGA|
BABd edeg|abge g2eg|bage d2 BG|1 ABGE G2GA:|2 ABGE G2dc||
|:BG~G2 GABd|eg~g2 egdc|BG~G2 dGBG|EA ~A2 EAcA|
BGGF GABd|eg~g2 efga|bgag e/f/g dB|1 ABGE G2dc:|2 ABGE G4||

